X: 35
T:Old Tom of Oxford (Bampton)
M:4/4
L:1/8
O:England; Oxfordshire; Bampton.
B:Lionel Bacon, A Handbook of Morris Dances
Z:http://www.themorrisring.org/music/handbook-morris-dances
P:AAB(CB)2
K:G
P:A
Bc|d2ef g2d2|c2B2 A2BA|G2Bc d2g2|f2g2 a2gf|
d2ef g2d2|c2B2 A2ef|g2d2 c2B2|A4 G2||
P:B
dc|Bcd2 B2d2|B2d2 gfed|c2e2 c2e2|c2e2 gfed|
B2d2 B2c2|d2ef g2f2|g2d2 c2B2|A4 G2||
P:C
M:2/4
L:1/8
B2c2|\
M:4/4
L:1/8
d4 e2f2|g4 d4|c4 B4|A6 BA|G4 B2c2|d4 g4|f4 g4|
M:2/4
L:1/8
a2fe|\
M:4/4
d2ef g2d2|c2B2 A2ef|g2d2 c2B2|A4 G2||

